X:1
T:Title
L:1/8
Q:1/4=110
M:4/4
K:A
V:1 treble nm="Church Organ, Staff"
V:1
 E E2 A- A/ z/ B3 | E E2 A- A/ z/ B3 | E E2 c- c/ z/ c2 B | F B3 c B3 | E E2 A- A/ z/ B3 | %5
w: By~W.~Borrow * * * *|||||
 E E2 c- c/ z/ d3 | cBAG F E2 c- | c B3- B/ z/ A3 | A A2 A- A/ z/ A2 A- | A d2 c B A3 | %10
w: |||||
 F =G2 A- A/ z/ G2 C- | C =G3 A G3 | F d2 d- d/ z/ F2 F- | F B2 B- B/ z/ A3 | G F2 G- G/ z/ A2 c- | %15
w: |||||
 c B3 A A3 | A c3 c A2 F- | FFGA B c3 | c d3 F G2 A- | A c3- c/ z/ B3- | B A3- A2- A/ z/ z |] %21
w: ||||||

